styles/4/Numix/32/places/grey-folder-ubuntu.svg

<?xml version="1.0" encoding="UTF-8" standalone="no"?>
<!-- Created with Inkscape (http://www.inkscape.org/) -->

<svg
   xmlns:dc="http://purl.org/dc/elements/1.1/"
   xmlns:cc="http://creativecommons.org/ns#"
   xmlns:rdf="http://www.w3.org/1999/02/22-rdf-syntax-ns#"
   xmlns:svg="http://www.w3.org/2000/svg"
   xmlns="http://www.w3.org/2000/svg"
   xmlns:sodipodi="http://sodipodi.sourceforge.net/DTD/sodipodi-0.dtd"
   xmlns:inkscape="http://www.inkscape.org/namespaces/inkscape"
   width="32"
   height="32"
   id="svg2"
   version="1.1"
   inkscape:version="0.91 r"
   sodipodi:docname="grey-folder-ubuntu.svg"
   inkscape:export-filename="/media/Data/Main/Visuals/Icons/Numix/Desktop/repos/numix-wiki/Gjorgi/Numix-folders/48/New/folder-144.png"
   inkscape:export-xdpi="270"
   inkscape:export-ydpi="270">
  <defs
     id="defs4" />
  <sodipodi:namedview
     id="base"
     pagecolor="#ffffff"
     bordercolor="#666666"
     borderopacity="1.0"
     inkscape:pageopacity="0.0"
     inkscape:pageshadow="2"
     inkscape:zoom="13.059378"
     inkscape:cx="7.2393806"
     inkscape:cy="8.101032"
     inkscape:document-units="px"
     inkscape:current-layer="layer1"
     showgrid="true"
     inkscape:window-width="1280"
     inkscape:window-height="998"
     inkscape:window-x="0"
     inkscape:window-y="0"
     inkscape:window-maximized="1"
     showguides="true"
     inkscape:guide-bbox="true">
    <inkscape:grid
       type="xygrid"
       id="grid2985"
       empspacing="5"
       visible="true"
       enabled="true"
       snapvisiblegridlinesonly="true" />
  </sodipodi:namedview>
  <metadata
     id="metadata7">
    <rdf:RDF>
      <cc:Work
         rdf:about="">
        <dc:format>image/svg+xml</dc:format>
        <dc:type
           rdf:resource="http://purl.org/dc/dcmitype/StillImage" />
        <dc:title />
      </cc:Work>
    </rdf:RDF>
  </metadata>
  <g
     inkscape:label="Layer 1"
     inkscape:groupmode="layer"
     id="layer1"
     transform="translate(0,-1020.3622)">
    <path
       style="fill:#757575;fill-opacity:1;stroke:none"
       d="m 4,1025.3622 23.5,0 c 1,0 1.5,0.4999 1.5,1.4996 l 0,3.4991 c 0,0.5538 -0.4737,0.4998 -1,0.4998 l -24,0 c -0.5263,0 -1,-0.4459 -1,-0.9997 l 0,-4.4988 z"
       id="path3811"
       inkscape:connector-curvature="0"
       sodipodi:nodetypes="csssssscc" />
    <path
       style="opacity:0.02999998;fill:#000000;fill-opacity:1;stroke:none"
       d="m 3,1028.3622 0,2.5 26,0 0,-2.5 z"
       id="path3807"
       inkscape:connector-curvature="0" />
    <path
       style="fill:#757575;fill-opacity:1;stroke:none"
       d="m 3,1027.3622 0,-2.5 c 0,-1 0.4545455,-1.5 0.9090909,-1.5 l 5.1818181,0 c 0.454546,0 0.909091,0.5 0.909091,1.5 l 0,2.5 z"
       id="rect3760"
       inkscape:connector-curvature="0"
       sodipodi:nodetypes="csssscc" />
    <rect
       style="fill:#bdbdbd;fill-opacity:1;stroke:none"
       id="rect2990"
       width="30"
       height="20"
       x="1"
       y="1029.3622"
       rx="2"
       ry="1.6666666" />
    <path
       style="opacity:0.1;fill:#ffffff;fill-opacity:1;stroke:none"
       d="m 3,1029.3622 c -1.108,0 -2,0.7485 -2,1.6719 l 0,1 c 0,-0.9234 0.892,-1.6719 2,-1.6719 l 26,0 c 1.108,0 2,0.7485 2,1.6719 l 0,-1 c 0,-0.9234 -0.892,-1.6719 -2,-1.6719 l -26,0 z"
       id="rect3004"
       inkscape:connector-curvature="0" />
    <path
       style="opacity:0.05;fill:#000000;fill-opacity:1;stroke:none"
       d="m 10,1025.3622 0,1 1,0 16.5,0 c 1,0 1.5,0.5002 1.5,1.5 l 0,-1 c 0,-0.9997 -0.5,-1.5 -1.5,-1.5 l -16.5,0 z"
       id="path3781"
       inkscape:connector-curvature="0"
       sodipodi:nodetypes="cccscsscc" />
    <path
       style="opacity:0.05;fill:#000000;fill-opacity:1;stroke:none"
       d="m 3.90625,1023.3622 c -0.4545454,0 -0.90625,0.5 -0.90625,1.5 l 0,1 c 0,-1 0.4517046,-1.5 0.90625,-1.5 l 5.1875,0 c 0.454546,0 0.90625,0.5 0.90625,1.5 l 0,-1 c 0,-1 -0.451704,-1.5 -0.90625,-1.5 l -5.1875,0 z"
       id="path3801"
       inkscape:connector-curvature="0" />
    <path
       style="opacity:1.0;fill:#7f7f7f;fill-opacity:1;stroke:none"
       d="M 21.5 11.5 C 20.671573 11.5 20 12.171573 20 13 C 20 13.828427 20.671573 14.5 21.5 14.5 C 22.328427 14.5 23 13.828427 23 13 C 23 12.171573 22.328427 11.5 21.5 11.5 z M 16 12.5 C 14.853993 12.5 13.785052 12.8163 12.875 13.375 L 14.375 14.875 C 14.875795 14.6494 15.41508 14.5 16 14.5 C 18.039144 14.5 19.721845 16.0278 19.96875 18 L 21.96875 18 C 21.88752 17.0402 21.603774 16.1529 21.125 15.375 C 20.937146 15.46 20.719427 15.5 20.5 15.5 C 19.671573 15.5 19 14.8285 19 14 C 19 13.7806 19.040335 13.59405 19.125 13.40625 C 18.211518 12.84405 17.151304 12.5 16 12.5 z M 12.0625 14 C 11.123009 14.8191 10.44518 15.90005 10.15625 17.15625 C 10.653892 17.40035 11 17.9083 11 18.5 C 11 19.0917 10.653892 19.59965 10.15625 19.84375 C 10.467533 21.19705 11.227121 22.38515 12.28125 23.21875 L 13.71875 21.78125 C 12.681129 21.05855 12 19.8604 12 18.5 C 12 17.2449 12.595531 16.13955 13.5 15.40625 L 12.0625 14 z M 8 17 C 7.1715729 17 6.5 17.671573 6.5 18.5 C 6.5 19.328427 7.1715729 20 8 20 C 8.8284271 20 9.5 19.328427 9.5 18.5 C 9.5 17.671573 8.8284271 17 8 17 z M 19.96875 19 C 19.721845 20.9722 18.039144 22.5 16 22.5 C 15.527106 22.5 15.077347 22.401 14.65625 22.25 L 13.125 23.78125 C 13.975961 24.24615 14.962019 24.5 16 24.5 C 16.756371 24.5 17.458491 24.3804 18.125 24.125 C 18.04033 23.9371 18 23.7195 18 23.5 C 18 22.6716 18.671573 22 19.5 22 C 19.902031 22 20.261929 22.18 20.53125 22.4375 C 21.341487 21.5021 21.860878 20.3063 21.96875 19 L 19.96875 19 z M 20.5 23 C 19.671573 23 19 23.671573 19 24.5 C 19 25.328427 19.671573 26 20.5 26 C 21.328427 26 22 25.328427 22 24.5 C 22 23.671573 21.328427 23 20.5 23 z "
       transform="translate(0,1020.3622)"
       id="path3007" />
  </g>
</svg>

<!-- Created with Inkscape (http://www.inkscape.org/) -->
<svg xmlns="http://www.w3.org/2000/svg" viewBox="0 0 32 32">
 <g transform="translate(0,-1020.3622)">
  <path d="m 4 1025.36 23.5 0 c 1 0 1.5 0.5 1.5 1.5 l 0 3.499 c 0 0.554 -0.474 0.5 -1 0.5 l -24 0 c -0.526 0 -1 -0.446 -1 -1 l 0 -4.499 z" style="fill:#757575;fill-opacity:1;stroke:none"/>
  <path d="m 3 1028.36 0 2.5 26 0 0 -2.5 z" style="fill:#000;opacity:0.03;fill-opacity:1;stroke:none"/>
  <path d="m 3 1027.36 0 -2.5 c 0 -1 0.455 -1.5 0.909 -1.5 l 5.182 0 c 0.455 0 0.909 0.5 0.909 1.5 l 0 2.5 z" style="fill:#757575;fill-opacity:1;stroke:none"/>
  <rect width="30" height="20" x="1" y="1029.36" rx="2" ry="1.667" style="fill:#bdbdbd;fill-opacity:1;stroke:none"/>
  <path d="m 3 1029.36 c -1.108 0 -2 0.748 -2 1.672 l 0 1 c 0 -0.923 0.892 -1.672 2 -1.672 l 26 0 c 1.108 0 2 0.748 2 1.672 l 0 -1 c 0 -0.923 -0.892 -1.672 -2 -1.672 l -26 0 z" style="fill:#fff;opacity:0.1;fill-opacity:1;stroke:none"/>
  <path d="m 10 1025.36 0 1 1 0 16.5 0 c 1 0 1.5 0.5 1.5 1.5 l 0 -1 c 0 -1 -0.5 -1.5 -1.5 -1.5 l -16.5 0 z" style="fill:#000;opacity:0.05;fill-opacity:1;stroke:none"/>
  <path d="m 3.906 1023.36 c -0.455 0 -0.906 0.5 -0.906 1.5 l 0 1 c 0 -1 0.452 -1.5 0.906 -1.5 l 5.188 0 c 0.455 0 0.906 0.5 0.906 1.5 l 0 -1 c 0 -1 -0.452 -1.5 -0.906 -1.5 l -5.188 0 z" style="fill:#000;opacity:0.05;fill-opacity:1;stroke:none"/>
  <path d="m 21.5 11.5 c -0.828 0 -1.5 0.672 -1.5 1.5 c 0 0.828 0.672 1.5 1.5 1.5 c 0.828 0 1.5 -0.672 1.5 -1.5 c 0 -0.828 -0.672 -1.5 -1.5 -1.5 z m -5.5 1 c -1.146 0 -2.215 0.316 -3.125 0.875 l 1.5 1.5 c 0.501 -0.226 1.04 -0.375 1.625 -0.375 c 2.039 0 3.722 1.528 3.969 3.5 l 2 0 c -0.081 -0.96 -0.365 -1.847 -0.844 -2.625 c -0.188 0.085 -0.406 0.125 -0.625 0.125 c -0.828 0 -1.5 -0.672 -1.5 -1.5 c 0 -0.219 0.04 -0.406 0.125 -0.594 c -0.913 -0.562 -1.974 -0.906 -3.125 -0.906 z m -3.938 1.5 c -0.939 0.819 -1.617 1.9 -1.906 3.156 c 0.498 0.244 0.844 0.752 0.844 1.344 c 0 0.592 -0.346 1.1 -0.844 1.344 c 0.311 1.353 1.071 2.541 2.125 3.375 l 1.438 -1.438 c -1.038 -0.723 -1.719 -1.921 -1.719 -3.281 c 0 -1.255 0.596 -2.36 1.5 -3.094 l -1.438 -1.406 z m -4.063 3 c -0.828 0 -1.5 0.672 -1.5 1.5 c 0 0.828 0.672 1.5 1.5 1.5 c 0.828 0 1.5 -0.672 1.5 -1.5 c 0 -0.828 -0.672 -1.5 -1.5 -1.5 z m 11.969 2 c -0.247 1.972 -1.93 3.5 -3.969 3.5 c -0.473 0 -0.923 -0.099 -1.344 -0.25 l -1.531 1.531 c 0.851 0.465 1.837 0.719 2.875 0.719 c 0.756 0 1.458 -0.12 2.125 -0.375 c -0.085 -0.188 -0.125 -0.406 -0.125 -0.625 c 0 -0.828 0.672 -1.5 1.5 -1.5 c 0.402 0 0.762 0.18 1.031 0.438 c 0.81 -0.935 1.33 -2.131 1.438 -3.438 l -2 0 z m 0.531 4 c -0.828 0 -1.5 0.672 -1.5 1.5 c 0 0.828 0.672 1.5 1.5 1.5 c 0.828 0 1.5 -0.672 1.5 -1.5 c 0 -0.828 -0.672 -1.5 -1.5 -1.5 z" transform="translate(0,1020.3622)" style="fill:#7f7f7f;opacity:1;fill-opacity:1;stroke:none"/>
 </g>
</svg>
